;FLAVOR:Marlin
;TIME:11359
;Filament used: 9.41533m
;Layer height: 0.2
;MINX:40.799
;MINY:60.799
;MINZ:0.2
;MAXX:179.201
;MAXY:159.201
;MAXZ:5
;Generated with Cura_SteamEngine 4.8.0
M140 S50
M105
M190 S50
M104 S200
M105
M109 S200
M82 ;absolute extrusion mode
; Ender 3 Custom Start G-code
G92 E0 ; Reset Extruder
G28 ; Home all axes
G1 Z2.0 F3000 ; Move Z Axis up little to prevent scratching of Heat Bed
G1 X0.1 Y20 Z0.3 F5000.0 ; Move to start position
G1 X0.1 Y200.0 Z0.3 F1500.0 E15 ; Draw the first line
G1 X0.4 Y200.0 Z0.3 F5000.0 ; Move to side a little
G1 X0.4 Y20 Z0.3 F1500.0 E30 ; Draw the second line
G92 E0 ; Reset Extruder
G1 Z2.0 F3000 ; Move Z Axis up little to prevent scratching of Heat Bed
G1 X5 Y20 Z0.3 F5000.0 ; Move over to prevent blob squish
G92 E0
G92 E0
G1 F1500 E-6.5
;LAYER_COUNT:25
;LAYER:0
M107
G0 F6000 X45.755 Y62.987 Z0.2
;TYPE:SKIRT
G1 F1500 E0
G1 F1200 X46.278 Y62.651 E0.02068
G1 X46.457 Y62.543 E0.02763
G1 X46.718 Y62.39 E0.03769
G1 X46.921 Y62.275 E0.04545
G1 X47.756 Y61.848 E0.07664
G1 X48.624 Y61.494 E0.10782
G1 X49.52 Y61.214 E0.13904
G1 X50.336 Y61.031 E0.16686
G1 X50.53 Y60.995 E0.17342
G1 X51.459 Y60.863 E0.20463
G1 X52.376 Y60.811 E0.23518
G1 X53.291 Y60.799 E0.26562
G1 X83.175 Y60.801 E1.25956
G1 X166.797 Y60.799 E4.04084
G1 X167.607 Y60.809 E4.06778
G1 X168.543 Y60.862 E4.09896
G1 X169.849 Y61.071 E4.14295
G1 X170.042 Y61.114 E4.14953
G1 X170.948 Y61.357 E4.18073
G1 X171.83 Y61.676 E4.21193
G1 X173.071 Y62.279 E4.25782
G1 X173.463 Y62.501 E4.2728
G1 X174.258 Y62.998 E4.30398
G1 X175.009 Y63.56 E4.33518
G1 X175.709 Y64.185 E4.36639
G1 X176.353 Y64.867 E4.39759
G1 X176.936 Y65.601 E4.42877
G1 X177.455 Y66.382 E4.45996
G1 X178.067 Y67.546 E4.5037
G1 X178.269 Y68.01 E4.52053
G1 X178.36 Y68.233 E4.52854
G1 X178.677 Y69.116 E4.55974
G1 X178.917 Y70.022 E4.59092
G1 X179.08 Y70.946 E4.62212
G1 X179.144 Y71.557 E4.64256
G1 X179.165 Y71.834 E4.6518
G1 X179.195 Y72.543 E4.6754
G1 X179.201 Y73.114 E4.69439
G1 X179.199 Y102.509 E5.67207
G1 X179.199 Y146.953 E7.15029
G1 X179.189 Y147.66 E7.1738
G1 X179.136 Y148.596 E7.20498
G1 X179.003 Y149.524 E7.23616
G1 X178.849 Y150.221 E7.25991
G1 X178.797 Y150.425 E7.26691
G1 X178.527 Y151.323 E7.2981
G1 X178.218 Y152.112 E7.32628
G1 X178.121 Y152.334 E7.33434
G1 X177.709 Y153.177 E7.36555
G1 X177.227 Y153.981 E7.39672
G1 X176.678 Y154.742 E7.42793
G1 X176.066 Y155.453 E7.45914
G1 X175.396 Y156.109 E7.49032
G1 X174.673 Y156.706 E7.52151
G1 X173.732 Y157.344 E7.55932
G1 X173.555 Y157.451 E7.5662
G1 X173.277 Y157.613 E7.5769
G1 X173.07 Y157.73 E7.58481
G1 X172.234 Y158.156 E7.61602
G1 X171.366 Y158.51 E7.6472
G1 X170.47 Y158.788 E7.6784
G1 X169.664 Y158.969 E7.70587
G1 X169.47 Y159.005 E7.71244
G1 X168.541 Y159.137 E7.74365
G1 X167.624 Y159.189 E7.77419
G1 X166.709 Y159.201 E7.80463
G1 X136.825 Y159.199 E8.79858
G1 X53.054 Y159.2 E11.58481
G1 X52.393 Y159.191 E11.6068
G1 X51.457 Y159.138 E11.63798
G1 X50.151 Y158.929 E11.68197
G1 X49.958 Y158.886 E11.68855
G1 X49.052 Y158.643 E11.71975
G1 X48.17 Y158.324 E11.75094
G1 X46.937 Y157.725 E11.79653
G1 X46.546 Y157.504 E11.81147
G1 X45.75 Y157.008 E11.84267
G1 X44.999 Y156.446 E11.87386
G1 X44.299 Y155.823 E11.90503
G1 X43.654 Y155.141 E11.93625
G1 X43.07 Y154.408 E11.96742
G1 X42.55 Y153.627 E11.99863
G1 X41.952 Y152.494 E12.04124
G1 X41.905 Y152.391 E12.04501
G1 X41.715 Y151.951 E12.06095
G1 X41.628 Y151.736 E12.06866
G1 X41.314 Y150.853 E12.09983
G1 X41.076 Y149.945 E12.13105
G1 X40.916 Y149.021 E12.16224
G1 X40.856 Y148.442 E12.1816
G1 X40.835 Y148.165 E12.19084
G1 X40.805 Y147.442 E12.21491
G1 X40.799 Y146.829 E12.2353
G1 X40.801 Y117.49 E13.21112
G1 X40.801 Y73.001 E14.69083
G1 X40.809 Y72.453 E14.70906
G1 X40.863 Y71.514 E14.74034
G1 X40.884 Y71.305 E14.74733
G1 X41.018 Y70.377 E14.77851
G1 X41.23 Y69.463 E14.80972
G1 X41.591 Y68.383 E14.84759
G1 X41.723 Y68.047 E14.8596
G1 X42.103 Y67.189 E14.89081
G1 X42.554 Y66.367 E14.922
G1 X43.074 Y65.587 E14.95318
G1 X43.658 Y64.853 E14.98437
G1 X44.303 Y64.172 E15.01557
G1 X45.004 Y63.549 E15.04676
G1 X45.755 Y62.987 E15.07796
G0 F6000 X46.079 Y63.251
G1 F1200 X46.485 Y62.993 E15.09396
G1 X46.664 Y62.885 E15.10091
G1 X46.915 Y62.738 E15.11059
G1 X47.118 Y62.623 E15.11835
G1 X47.938 Y62.205 E15.14896
G1 X48.791 Y61.859 E15.17958
G1 X49.671 Y61.588 E15.2102
G1 X50.409 Y61.424 E15.23535
G1 X50.603 Y61.388 E15.24191
G1 X51.515 Y61.259 E15.27254
G1 X52.382 Y61.211 E15.30142
G1 X53.291 Y61.199 E15.33166
G1 X83.175 Y61.201 E16.32561
G1 X166.797 Y61.199 E19.10689
G1 X167.601 Y61.209 E19.13363
G1 X168.52 Y61.261 E19.16424
G1 X169.762 Y61.462 E19.20609
G1 X169.955 Y61.505 E19.21267
G1 X170.844 Y61.744 E19.24329
G1 X171.709 Y62.059 E19.2739
G1 X172.874 Y62.627 E19.31701
G1 X173.266 Y62.849 E19.332
G1 X174.046 Y63.337 E19.3626
G1 X174.782 Y63.891 E19.39324
G1 X175.466 Y64.507 E19.42385
G1 X176.095 Y65.18 E19.45449
G1 X176.662 Y65.905 E19.4851
G1 X177.165 Y66.676 E19.51572
G1 X177.703 Y67.71 E19.55449
G1 X177.745 Y67.803 E19.55788
G1 X177.898 Y68.161 E19.57083
G1 X177.989 Y68.384 E19.57884
G1 X178.3 Y69.251 E19.60948
G1 X178.534 Y70.141 E19.64009
G1 X178.69 Y71.049 E19.67073
G1 X178.745 Y71.588 E19.68875
G1 X178.766 Y71.865 E19.69799
G1 X178.795 Y72.547 E19.72069
G1 X178.801 Y73.114 E19.73955
G1 X178.799 Y102.509 E20.71723
G1 X178.799 Y146.947 E22.19525
G1 X178.789 Y147.654 E22.21876
G1 X178.736 Y148.573 E22.24938
G1 X178.603 Y149.484 E22.28
G1 X178.462 Y150.122 E22.30173
G1 X178.41 Y150.326 E22.30874
G1 X178.144 Y151.208 E22.33938
G1 X177.851 Y151.952 E22.36597
G1 X177.754 Y152.174 E22.37403
G1 X177.349 Y153.001 E22.40466
G1 X176.874 Y153.79 E22.43529
G1 X176.332 Y154.534 E22.4659
G1 X175.728 Y155.228 E22.4965
G1 X175.066 Y155.868 E22.52713
G1 X174.351 Y156.448 E22.55775
G1 X173.525 Y157.001 E22.59081
G1 X173.348 Y157.108 E22.59769
G1 X173.08 Y157.265 E22.60802
G1 X172.873 Y157.382 E22.61593
G1 X172.052 Y157.8 E22.64657
G1 X171.199 Y158.145 E22.67718
G1 X170.319 Y158.414 E22.70778
G1 X169.591 Y158.576 E22.73259
G1 X169.397 Y158.612 E22.73915
G1 X168.485 Y158.741 E22.76979
G1 X167.618 Y158.789 E22.79867
G1 X166.709 Y158.801 E22.8289
G1 X136.825 Y158.799 E23.82285
G1 X53.06 Y158.8 E26.60888
G1 X52.399 Y158.791 E26.63087
G1 X51.48 Y158.739 E26.66149
G1 X50.238 Y158.538 E26.70333
G1 X50.045 Y158.495 E26.70991
G1 X49.156 Y158.256 E26.74053
G1 X48.291 Y157.941 E26.77115
G1 X47.134 Y157.377 E26.81396
G1 X46.743 Y157.156 E26.82889
G1 X45.962 Y156.669 E26.85951
G1 X45.226 Y156.115 E26.89015
G1 X44.541 Y155.5 E26.92076
G1 X43.912 Y154.828 E26.95138
G1 X43.344 Y154.104 E26.98199
G1 X42.84 Y153.333 E27.01262
G1 X42.316 Y152.328 E27.05032
G1 X42.269 Y152.225 E27.05408
G1 X42.086 Y151.801 E27.06944
G1 X41.999 Y151.586 E27.07716
G1 X41.691 Y150.718 E27.10779
G1 X41.46 Y149.827 E27.13841
G1 X41.306 Y148.92 E27.16901
G1 X41.255 Y148.411 E27.18602
G1 X41.234 Y148.134 E27.19526
G1 X41.205 Y147.438 E27.21843
G1 X41.199 Y146.829 E27.23868
G1 X41.201 Y117.49 E28.2145
G1 X41.201 Y73.007 E29.69401
G1 X41.209 Y72.459 E29.71224
G1 X41.261 Y71.554 E29.74239
G1 X41.282 Y71.345 E29.74938
G1 X41.414 Y70.434 E29.78
G1 X41.624 Y69.538 E29.8106
G1 X41.963 Y68.529 E29.84601
G1 X42.095 Y68.193 E29.85801
G1 X42.469 Y67.352 E29.88863
G1 X42.914 Y66.546 E29.91925
G1 X43.427 Y65.782 E29.94986
G1 X44.005 Y65.065 E29.98049
G1 X44.643 Y64.401 E30.01112
G1 X45.336 Y63.795 E30.04173
G1 X46.079 Y63.251 E30.07236
G0 F6000 X46.692 Y63.336
G1 F1200 X47.112 Y63.086 E30.08862
G1 X47.315 Y62.971 E30.09638
G1 X48.12 Y62.561 E30.12643
G1 X48.958 Y62.224 E30.15647
G1 X49.822 Y61.962 E30.1865
G1 X50.482 Y61.817 E30.20897
G1 X50.676 Y61.781 E30.21553
G1 X51.57 Y61.656 E30.24556
G1 X52.388 Y61.611 E30.27281
G1 X53.291 Y61.599 E30.30284
G1 X83.175 Y61.601 E31.29679
G1 X166.797 Y61.599 E34.07807
G1 X167.596 Y61.609 E34.10464
G1 X168.497 Y61.661 E34.13466
G1 X169.675 Y61.852 E34.17435
G1 X169.868 Y61.895 E34.18093
G1 X170.74 Y62.13 E34.21097
G1 X171.588 Y62.442 E34.24102
G1 X172.676 Y62.975 E34.28132
G1 X173.068 Y63.197 E34.2963
G1 X173.834 Y63.677 E34.32637
G1 X174.554 Y64.222 E34.3564
G1 X175.223 Y64.829 E34.38645
G1 X175.835 Y65.492 E34.41646
G1 X176.387 Y66.208 E34.44653
G1 X176.873 Y66.969 E34.47656
G1 X177.338 Y67.875 E34.51043
G1 X177.38 Y67.968 E34.51382
G1 X177.528 Y68.312 E34.52628
G1 X177.619 Y68.535 E34.53429
G1 X177.923 Y69.386 E34.56434
G1 X178.15 Y70.26 E34.59438
G1 X178.3 Y71.15 E34.6244
G1 X178.346 Y71.618 E34.64004
G1 X178.367 Y71.895 E34.64928
G1 X178.395 Y72.552 E34.67115
G1 X178.401 Y73.114 E34.68984
G1 X178.399 Y102.509 E35.66752
G1 X178.399 Y146.941 E37.14534
G1 X178.389 Y147.648 E37.16886
G1 X178.336 Y148.55 E37.19891
G1 X178.204 Y149.443 E37.22893
G1 X178.074 Y150.023 E37.2487
G1 X178.022 Y150.227 E37.2557
G1 X177.76 Y151.092 E37.28576
G1 X177.485 Y151.792 E37.31078
G1 X177.388 Y152.014 E37.31884
G1 X176.99 Y152.825 E37.34888
G1 X176.522 Y153.597 E37.37891
G1 X175.987 Y154.325 E37.40896
G1 X175.391 Y155.003 E37.43898
G1 X174.736 Y155.625 E37.46903
G1 X174.029 Y156.187 E37.49907
G1 X173.318 Y156.659 E37.52745
G1 X173.141 Y156.766 E37.53433
G1 X172.883 Y156.917 E37.54427
G1 X172.676 Y157.034 E37.55218
G1 X171.871 Y157.443 E37.58221
G1 X171.033 Y157.779 E37.61224
G1 X170.168 Y158.04 E37.64229
G1 X169.518 Y158.183 E37.66443
G1 X169.324 Y158.219 E37.67099
G1 X168.43 Y158.344 E37.70102
G1 X167.612 Y158.389 E37.72826
G1 X166.709 Y158.401 E37.7583
G1 X136.825 Y158.399 E38.75225
G1 X53.065 Y158.4 E41.53811
G1 X52.404 Y158.391 E41.5601
G1 X51.503 Y158.339 E41.59012
G1 X50.325 Y158.148 E41.62981
G1 X50.132 Y158.105 E41.63639
G1 X49.26 Y157.87 E41.66643
G1 X48.412 Y157.558 E41.69648
G1 X47.331 Y157.029 E41.73651
G1 X46.94 Y156.808 E41.75144
G1 X46.174 Y156.329 E41.78149
G1 X45.454 Y155.784 E41.81153
G1 X44.784 Y155.178 E41.84157
G1 X44.171 Y154.515 E41.87161
G1 X43.619 Y153.8 E41.90165
G1 X43.132 Y153.04 E41.93167
G1 X42.679 Y152.162 E41.96453
G1 X42.632 Y152.059 E41.9683
G1 X42.457 Y151.651 E41.98306
G1 X42.37 Y151.436 E41.99078
G1 X42.068 Y150.585 E42.02081
G1 X41.844 Y149.71 E42.05085
G1 X41.654 Y148.381 E42.09551
G1 X41.633 Y148.104 E42.10475
G1 X41.605 Y147.434 E42.12705
G1 X41.599 Y146.829 E42.14717
G1 X41.601 Y117.49 E43.12299
G1 X41.601 Y73.013 E44.6023
G1 X41.609 Y72.465 E44.62053
G1 X41.659 Y71.594 E44.64955
G1 X41.68 Y71.385 E44.65653
G1 X41.81 Y70.492 E44.68655
G1 X42.019 Y69.613 E44.7166
G1 X42.335 Y68.675 E44.74952
G1 X42.467 Y68.339 E44.76153
G1 X42.834 Y67.514 E44.79156
G1 X43.273 Y66.725 E44.82159
G1 X43.78 Y65.977 E44.85165
G1 X44.351 Y65.278 E44.88167
G1 X44.981 Y64.631 E44.9117
G1 X45.667 Y64.043 E44.94175
G1 X46.692 Y63.336 E44.98317
G1 F1500 E38.48317
;MESH:ca9c7ace-7693-4b06-84fa-1c02e5e76382.stl
G0 F6000 X51.735 Y71.421
G0 X52.282 Y72.356
G0 X52.419 Y72.499
;TYPE:WALL-INNER
G1 F1500 E44.98317
G1 F1200 X52.427 Y72.481 E44.98382
G1 X52.452 Y72.466 E44.98479
G1 X52.432 Y72.486
G1 X52.419 Y72.499
G0 F6000 X52.231 Y72.981
G0 X52 Y73.91
;TYPE:WALL-OUTER
G1 F1200 X52 Y72.496 E45.03182
G1 X52.005 Y72.453 E45.03326
G1 X52.108 Y72.204 E45.04222
G1 X52.413 Y72.026 E45.05397
G1 X52.566 Y71.999 E45.05914
G1 X53.914 Y71.999 E45.10397
G1 X53.651 Y72.098 E45.11332
G1 X53.229 Y72.334 E45.1294
G1 X52.89 Y72.593 E45.14359
G1 X52.589 Y72.895 E45.15777
G1 X52.33 Y73.235 E45.17199
G1 X52.1 Y73.645 E45.18762
G1 X52 Y73.91 E45.19704
G1 F1500 E38.69704
G0 F6000 X52.244 Y72.937
G0 X52.423 Y72.75
G0 X53.239 Y73.468
G0 X166.296 Y73.058
G0 X166.94 Y72.205
G0 X167.58 Y72.499
;TYPE:WALL-INNER
G1 F1500 E45.19704
G1 F1200 X167.569 Y72.488 E45.19756
G1 X167.55 Y72.469 E45.19845
G1 X167.573 Y72.483
G1 X167.58 Y72.499 E45.19849
G0 F6000 X167.77 Y72.985
G0 X168.001 Y73.912
;TYPE:WALL-OUTER
G1 F1200 X167.9 Y73.645 E45.20799
G1 X167.67 Y73.236 E45.22359
G1 X167.402 Y72.885 E45.23828
G1 X167.1 Y72.585 E45.25244
G1 X166.771 Y72.335 E45.26618
G1 X166.362 Y72.104 E45.28181
G1 X166.085 Y71.999 E45.29166
G1 X167.482 Y71.999 E45.33812
G1 X167.579 Y72.023 E45.34145
G1 X167.89 Y72.204 E45.35342
G1 X167.993 Y72.45 E45.36229
G1 X168.001 Y72.549 E45.36559
G1 X168.001 Y73.912 E45.41092
G1 F1500 E38.91092
G0 F6000 X167.759 Y72.942
G0 X166.948 Y73.713
G0 X166.943 Y146.294
G0 X167.794 Y146.943
G0 X167.548 Y147.534
;TYPE:WALL-INNER
G1 F1500 E45.41092
G1 F1200 X167.568 Y147.514 E45.41186
G1 X167.58 Y147.502 E45.41243
G1 X167.573 Y147.519 E45.41247
G1 X167.548 Y147.534 E45.41249
G1 F1500 E38.91249
G0 F6000 X167.018 Y147.77
G0 X166.086 Y148.001
;TYPE:WALL-OUTER
G1 F1500 E45.41249
G1 F1200 X166.349 Y147.902 E45.42184
G1 X166.771 Y147.666 E45.43792
G1 X167.11 Y147.407 E45.45211
G1 X167.411 Y147.105 E45.46629
G1 X167.67 Y146.765 E45.48051
G1 X167.9 Y146.355 E45.49614
G1 X168 Y146.09 E45.50556
G1 X168 Y147.496 E45.55233
G1 X167.989 Y147.561 E45.55452
G1 X167.892 Y147.796 E45.56298
G1 X167.587 Y147.974 E45.57472
G1 X167.434 Y148.001 E45.57989
G1 X166.086 Y148.001 E45.62472
G1 F1500 E39.12472
G0 F6000 X167.061 Y147.758
G0 X166.298 Y146.94
G0 X163.466 Y146.758
G0 X162.749 Y147.575
G0 X136.833 Y147.599
;TYPE:WALL-INNER
G1 F1500 E45.62472
G1 F1200 X57.88 Y147.6 E48.25071
G1 X57.729 Y147.6 E48.25573
G1 X57.481 Y147.601 E48.26398
G1 X57.728 Y147.353 E48.26926
G1 X57.818 Y147.232 E48.27342
G1 X58.021 Y146.96 E48.28471
G1 X58.259 Y146.532 E48.301
G1 X58.437 Y146.075 E48.31731
G1 X58.551 Y145.597 E48.33365
G1 X58.599 Y145.11 E48.34993
G1 X58.582 Y144.622 E48.36617
G1 X58.502 Y144.153 E48.38199
G1 X58.348 Y143.671 E48.39882
G1 X58.137 Y143.23 E48.41508
G1 X57.877 Y142.832 E48.4309
G1 X57.544 Y142.451 E48.44773
G1 X57.174 Y142.128 E48.46406
G1 X56.763 Y141.86 E48.48038
G1 X56.323 Y141.65 E48.4966
G1 X55.855 Y141.5 E48.51294
G1 X55.371 Y141.418 E48.52927
G1 X54.884 Y141.401 E48.54548
G1 X54.395 Y141.449 E48.56182
G1 X53.918 Y141.566 E48.57816
G1 X53.461 Y141.743 E48.59446
G1 X53.034 Y141.983 E48.61075
G1 X52.766 Y142.184 E48.62189
G1 X52.641 Y142.277 E48.62707
G1 X52.399 Y142.519 E48.63845
G1 X52.399 Y142.277 E48.64024
G1 X52.399 Y142.121 E48.64451
G1 X52.401 Y117.5 E49.46341
G1 X52.401 Y77.879 E50.78121
G1 X52.401 Y77.733 E50.78607
G1 X52.4 Y77.482 E50.79442
G1 X52.653 Y77.732 E50.79985
G1 X52.77 Y77.819 E50.8039
G1 X53.047 Y78.025 E50.81538
G1 X53.476 Y78.264 E50.83171
G1 X53.934 Y78.438 E50.84801
G1 X54.41 Y78.553 E50.8643
G1 X54.897 Y78.599 E50.88057
G1 X55.369 Y78.583 E50.89627
G1 X55.855 Y78.5 E50.91267
G1 X56.337 Y78.344 E50.92952
G1 X56.777 Y78.132 E50.94577
G1 X57.188 Y77.862 E50.96212
G1 X57.554 Y77.538 E50.97838
G1 X57.876 Y77.169 E50.99467
G1 X58.137 Y76.77 E51.01053
G1 X58.353 Y76.314 E51.02731
G1 X58.501 Y75.846 E51.04364
G1 X58.582 Y75.365 E51.05986
G1 X58.6 Y74.891 E51.07564
G1 X58.549 Y74.388 E51.09245
G1 X58.437 Y73.926 E51.10826
G1 X58.26 Y73.469 E51.12456
G1 X58.022 Y73.041 E51.14085
G1 X57.817 Y72.767 E51.15223
G1 X57.728 Y72.648 E51.15717
G1 X57.48 Y72.399 E51.16886
G1 X57.728 Y72.399 E51.17077
G1 X57.877 Y72.399 E51.1749
G1 X83.167 Y72.401 E52.01605
G1 X162.12 Y72.4 E54.64203
G1 X162.271 Y72.4 E54.64706
G1 X162.519 Y72.399 E54.65531
G1 X162.272 Y72.647 E54.66059
G1 X162.182 Y72.768 E54.66474
G1 X161.979 Y73.04 E54.67603
G1 X161.741 Y73.468 E54.69232
G1 X161.563 Y73.925 E54.70863
G1 X161.449 Y74.403 E54.72498
G1 X161.401 Y74.89 E54.74125
G1 X161.418 Y75.378 E54.75749
G1 X161.498 Y75.847 E54.77332
G1 X161.652 Y76.329 E54.79015
G1 X161.863 Y76.77 E54.80641
G1 X162.123 Y77.168 E54.82222
G1 X162.456 Y77.549 E54.83905
G1 X162.826 Y77.872 E54.85539
G1 X163.237 Y78.14 E54.87171
G1 X163.677 Y78.35 E54.88792
G1 X164.145 Y78.5 E54.90427
G1 X164.629 Y78.582 E54.92059
G1 X165.116 Y78.599 E54.9368
G1 X165.605 Y78.551 E54.95314
G1 X166.082 Y78.434 E54.96948
G1 X166.539 Y78.257 E54.98578
G1 X166.966 Y78.017 E55.00207
G1 X167.234 Y77.816 E55.01321
G1 X167.359 Y77.723 E55.0184
G1 X167.601 Y77.481 E55.02978
G1 X167.601 Y77.723 E55.03156
G1 X167.601 Y77.879 E55.03584
G1 X167.599 Y102.5 E55.85474
G1 X167.599 Y142.121 E57.17254
G1 X167.599 Y142.267 E57.17739
G1 X167.6 Y142.518 E57.18574
G1 X167.347 Y142.268 E57.19117
G1 X167.23 Y142.181 E57.19522
G1 X166.953 Y141.975 E57.2067
G1 X166.524 Y141.736 E57.22304
G1 X166.066 Y141.562 E57.23933
